icon-themes/sifr_svg/cmd/32/splitcells.svg

<svg viewBox="0 0 32 32" xmlns="http://www.w3.org/2000/svg"><g fill="#555753"><path d="m3 3v2h9v7h2v-8c0-.554-.446-1-1-1zm16 0c-.554 0-1 .446-1 1v8h2v-7h9v-2zm-11 9c-.30945 0-.55232.0903-.75.28125-1.41667 1.07301-2.83333 2.64575-4.25 3.71875l4.25 3.71875c.19768.19094.44055.28125.75.28125h.5859375.4140625v-1c0 .25689-.12983-.52846-.3125-.71875l-1.5097656-1.28125h17.6445316l-1.509766 1.28125c-.18267.19029-.3125.97564-.3125.71875v1h.414062.585938c.30945 0 .55232-.09031.75-.28125l4.25-3.71875c-1.41667-1.073-2.83333-2.64574-4.25-3.71875-.19768-.19095-.44055-.28125-.75-.28125h-.585938-.414062v1c0 .25689.12983.52846.3125.71875l1.509766 1.28125h-17.6445316l1.5097656-1.28125c.18267-.19029.3125-.46186.3125-.71875v-1h-.4140625zm4 8v7h-9v2h10c.554 0 1-.446 1-1v-8zm6 0v8c0 .554.446 1 1 1h10v-2h-9v-7z"/><path d="m3 5v22h9v-22zm17 0v22h9v-22z" opacity=".35"/></g></svg>

<svg xmlns="http://www.w3.org/2000/svg" viewBox="0 0 32 32">
  <path
     style="fill:#555753"
     d="M 3 3 L 3 5 L 12 5 L 12 12 L 14 12 L 14 4 C 14 3.446 13.554 3 13 3 L 3 3 z M 19 3 C 18.446 3 18 3.446 18 4 L 18 12 L 20 12 L 20 5 L 29 5 L 29 3 L 19 3 z M 8 12 C 7.69055 12 7.44768 12.0903 7.25 12.28125 C 5.83333 13.35426 4.41667 14.927 3 16 L 7.25 19.71875 C 7.44768 19.90969 7.69055 20 8 20 L 8.5859375 20 L 9 20 L 9 19 C 9 19.25689 8.87017 18.47154 8.6875 18.28125 L 7.1777344 17 L 24.822266 17 L 23.3125 18.28125 C 23.12983 18.47154 23 19.25689 23 19 L 23 20 L 23.414062 20 L 24 20 C 24.30945 20 24.55232 19.90969 24.75 19.71875 L 29 16 C 27.58333 14.927 26.16667 13.35426 24.75 12.28125 C 24.55232 12.0903 24.30945 12 24 12 L 23.414062 12 L 23 12 L 23 13 C 23 13.25689 23.12983 13.52846 23.3125 13.71875 L 24.822266 15 L 7.1777344 15 L 8.6875 13.71875 C 8.87017 13.52846 9 13.25689 9 13 L 9 12 L 8.5859375 12 L 8 12 z M 12 20 L 12 27 L 3 27 L 3 29 L 13 29 C 13.554 29 14 28.554 14 28 L 14 20 L 12 20 z M 18 20 L 18 28 C 18 28.554 18.446 29 19 29 L 29 29 L 29 27 L 20 27 L 20 20 L 18 20 z "
     />
  <path
     style="opacity:0.35;fill:#555753"
     d="M 3 5 L 3 27 L 12 27 L 12 5 L 3 5 z M 20 5 L 20 27 L 29 27 L 29 5 L 20 5 z "
     />
</svg>
